style-guide/assets/xd-icons-sound-off.svg

<?xml version="1.0" encoding="UTF-8"?>
<svg width="24px" height="24px" viewBox="0 0 24 24" version="1.1" xmlns="http://www.w3.org/2000/svg" xmlns:xlink="http://www.w3.org/1999/xlink">
    <!-- Generator: Sketch 51.3 (57544) - http://www.bohemiancoding.com/sketch -->
    <title>sound off</title>
    <desc>Created with Sketch.</desc>
    <defs>
        <path d="M21.4141,12.0005094 L23.7071,9.7075094 C24.0981,9.3165094 24.0981,8.6845094 23.7071,8.2935094 C23.3161,7.9025094 22.6841,7.9025094 22.2931,8.2935094 L20.0001,10.5865094 L17.7071,8.2935094 C17.3161,7.9025094 16.6841,7.9025094 16.2931,8.2935094 C15.9021,8.6845094 15.9021,9.3165094 16.2931,9.7075094 L18.5861,12.0005094 L16.2931,14.2935094 C15.9021,14.6845094 15.9021,15.3165094 16.2931,15.7075094 C16.6841,16.0985094 17.3161,16.0985094 17.7071,15.7075094 L20.0001,13.4145094 L22.2931,15.7075094 C22.4881,15.9025094 22.7441,16.0005094 23.0001,16.0005094 C23.2561,16.0005094 23.5121,15.9025094 23.7071,15.7075094 C24.0981,15.3165094 24.0981,14.6845094 23.7071,14.2935094 L21.4141,12.0005094 Z M10,19.5864094 L5.707,15.2934094 C5.52,15.1064094 5.265,15.0004094 5,15.0004094 L2,15.0004094 L2,9.0004094 L5,9.0004094 C5.265,9.0004094 5.52,8.8954094 5.707,8.7074094 L10,4.4144094 L10,19.5864094 Z M11.383,1.0764094 C11.008,0.921409403 10.579,1.0064094 10.293,1.2934094 L4.586,7.0004094 L1,7.0004094 C0.448,7.0004094 0,7.4474094 0,8.0004094 L0,16.0004094 C0,16.5534094 0.448,17.0004094 1,17.0004094 L4.586,17.0004094 L10.293,22.7074094 C10.484,22.8994094 10.74,23.0004094 11,23.0004094 C11.129,23.0004094 11.259,22.9754094 11.383,22.9244094 C11.756,22.7704094 12,22.4044094 12,22.0004094 L12,2.0004094 C12,1.5964094 11.756,1.2314094 11.383,1.0764094 Z" id="path-1"></path>
    </defs>
    <g id="sound-off" stroke="none" stroke-width="1" fill="none" fill-rule="evenodd">
        <mask id="mask-2" fill="white">
            <use xlink:href="#path-1"></use>
        </mask>
        <use id="icons/24px/Sound-Off" fill="#000000" xlink:href="#path-1"></use>
    </g>
</svg>

<svg viewBox="0 0 24 24" xmlns="http://www.w3.org/2000/svg" xmlns:xlink="http://www.w3.org/1999/xlink">
  <path d="M21.414 12l2.293-2.292a.999.999 0 1 0-1.414-1.414L20 10.587l-2.293-2.293a.999.999 0 1 0-1.414 1.414L18.586 12l-2.293 2.293a.999.999 0 1 0 1.414 1.414L20 13.415l2.293 2.293a.997.997 0 0 0 1.414 0 .999.999 0 0 0 0-1.414L21.414 12zM10 19.587l-4.293-4.293A1.002 1.002 0 0 0 5 15H2V9h3c.265 0 .52-.105.707-.293L10 4.414v15.172zm1.383-18.51a.998.998 0 0 0-1.09.217L4.586 7H1a1 1 0 0 0-1 1v8a1 1 0 0 0 1 1h3.586l5.707 5.707a.996.996 0 0 0 1.09.217A1 1 0 0 0 12 22V2c0-.404-.244-.769-.617-.924z"/>
</svg>
